X:2313
T:Padjer son Shee
C:Traditional
O:Isle of Man
Z:Collected by Mona Douglas
N:Kiaull Vannin #313 
L:1/4
M:4/4 
K:G 
B2 Bd|E2 ED|E2 G3/2G/|AA Bd|d3/2d/ ed|BG ED|d3/2d/ ed|
B (A/G/) E D/D/|E3/2E/ D2|EE D2|G3/2A/ Bd|e (d/e/) BD|E2 G2|AA B2|| 

